src/assets/images/icons/icon-tg.svg

<svg fill="none" height="60" viewBox="0 0 60 60" width="60" xmlns="http://www.w3.org/2000/svg"><circle cx="30" cy="30" fill="#00aff0" r="30"/><path clip-rule="evenodd" d="m34.8691 36.8454c.2254.1596.5159.1995.7749.1015.259-.0987.4494-.3199.5068-.588.6083-2.8588 2.0839-10.0947 2.6376-12.6952.042-.196-.028-.3997-.182-.5306s-.3675-.1687-.5579-.098c-2.9351 1.0864-11.9742 4.4779-15.6688 5.845-.2345.0868-.3871.3122-.3794.5593.0084.2478.175.4627.4151.5348 1.6569.4956 3.8318 1.1851 3.8318 1.1851s1.0164 3.0695 1.5463 4.6305c.0665.196.2198.35.4221.4032.2016.0525.4172-.0028.5677-.1449.8512-.8036 2.1672-2.0461 2.1672-2.0461s2.5004 1.8333 3.9186 2.8434zm-7.707-6.0739 1.1753 3.8766.2611-2.4549s4.5409-4.0957 7.1295-6.4302c.0756-.0686.0861-.1834.0231-.2639-.0623-.0805-.1771-.0994-.2632-.0448-3.0002 1.9159-8.3258 5.3172-8.3258 5.3172z" fill="#fff" fill-rule="evenodd"/></svg>

<svg width="60" height="60" viewBox="0 0 60 60" fill="none" xmlns="http://www.w3.org/2000/svg">
<circle cx="30" cy="30" r="30" fill="#00AFF0"/>
<path fill-rule="evenodd" clip-rule="evenodd" d="M34.8691 36.8454C35.0945 37.005 35.385 37.0449 35.644 36.9469C35.903 36.8482 36.0934 36.627 36.1508 36.3589C36.7591 33.5001 38.2347 26.2642 38.7884 23.6637C38.8304 23.4677 38.7604 23.264 38.6064 23.1331C38.4524 23.0022 38.2389 22.9644 38.0485 23.0351C35.1134 24.1215 26.0743 27.513 22.3797 28.8801C22.1452 28.9669 21.9926 29.1923 22.0003 29.4394C22.0087 29.6872 22.1753 29.9021 22.4154 29.9742C24.0723 30.4698 26.2472 31.1593 26.2472 31.1593C26.2472 31.1593 27.2636 34.2288 27.7935 35.7898C27.86 35.9858 28.0133 36.1398 28.2156 36.193C28.4172 36.2455 28.6328 36.1902 28.7833 36.0481C29.6345 35.2445 30.9505 34.002 30.9505 34.002C30.9505 34.002 33.4509 35.8353 34.8691 36.8454V36.8454ZM27.1621 30.7715L28.3374 34.6481L28.5985 32.1932C28.5985 32.1932 33.1394 28.0975 35.728 25.763C35.8036 25.6944 35.8141 25.5796 35.7511 25.4991C35.6888 25.4186 35.574 25.3997 35.4879 25.4543C32.4877 27.3702 27.1621 30.7715 27.1621 30.7715Z" fill="white"/>
</svg>
